X:1
T: Biddy Early
C:
R:Reel
Q:232
K:G
M:4/4
L:1/8
|:((3GAB) |c2cB cd eg|de dB GA Bd|cA ((3AAA) ec Ac|dc BA GA Bd|
c2cB cd eg|de dB GA Bd|cB Ag ed cB|c2A2 A2:|
|:ef|gf ga ge dc|Bc dB GA Bd|ag ab ag ea|ge dc dc de|
ge af ge dB|cB AB cd ea|gf ge df ed|c2A2 A2:|
